common/src/main/resources/icons/plugins/resharper/AssemblyExplorer/FolderResourcesOpened.svg

<!--
  - The MIT License (MIT)
  -
  - Copyright (c) 2015-2024 Elior "Mallowigi" Boukhobza
  -
  - Permission is hereby granted, free of charge, to any person obtaining a copy
  - of this software and associated documentation files (the "Software"), to deal
  - in the Software without restriction, including without limitation the rights
  - to use, copy, modify, merge, publish, distribute, sublicense, and/or sell
  - copies of the Software, and to permit persons to whom the Software is
  - furnished to do so, subject to the following conditions:
  -
  - The above copyright notice and this permission notice shall be included in all
  - copies or substantial portions of the Software.
  -
  - THE SOFTWARE IS PROVIDED "AS IS", WITHOUT WARRANTY OF ANY KIND, EXPRESS OR
  - IMPLIED, INCLUDING BUT NOT LIMITED TO THE WARRANTIES OF MERCHANTABILITY,
  - FITNESS FOR A PARTICULAR PURPOSE AND NONINFRINGEMENT. IN NO EVENT SHALL THE
  - AUTHORS OR COPYRIGHT HOLDERS BE LIABLE FOR ANY CLAIM, DAMAGES OR OTHER
  - LIABILITY, WHETHER IN AN ACTION OF CONTRACT, TORT OR OTHERWISE, ARISING FROM,
  - OUT OF OR IN CONNECTION WITH THE SOFTWARE OR THE USE OR OTHER DEALINGS IN THE
  - SOFTWARE.
  -->

<svg data-big="true" clip-rule="evenodd" fill-rule="evenodd" stroke-linejoin="round" stroke-miterlimit="1.4142" version="1.1"
     viewBox="0 0 24 24" width="16px" height="16px" xml:space="preserve" xmlns="http://www.w3.org/2000/svg">
<path fill="#8E24AA"
      d="M20,18H4V8H20M20,6H12L10,4H4C2.89,4 2,4.89 2,6V18A2,2 0 0,0 4,20H20A2,2 0 0,0 22,18V8C22,6.89 21.1,6 20,6Z"/>
  <path
    d="m21.598 12.059h-6.0845v-1.2169h6.0845m-2.4339 6.0846h-3.6507v-1.2169h3.6507m2.4339-1.2169h-6.0845v-1.2169h6.0845m0.60845-4.2592h-7.3015a1.2169 1.2169 0 0 0 -1.2169 1.2169v7.3016a1.2169 1.2169 0 0 0 1.2169 1.2169h7.3015a1.2169 1.2169 0 0 0 1.2169 -1.2169v-7.3016a1.2169 1.2169 0 0 0 -1.2169 -1.2169m-9.7352 2.4339h-1.2169v8.5184a1.2169 1.2169 0 0 0 1.2169 1.2169h8.5184v-1.2169h-8.5184z"
    fill="#CE93D8" stroke-width=".60845"/>
</svg>

<svg xmlns="http://www.w3.org/2000/svg" xml:space="preserve" width="16" height="16" fill-rule="evenodd" stroke-linejoin="round" stroke-miterlimit="1.414" clip-rule="evenodd" data-big="true" viewBox="0 0 24 24"><path fill="#8E24AA" d="M20 18H4V8h16m0-2h-8l-2-2H4c-1.11 0-2 .89-2 2v12a2 2 0 0 0 2 2h16a2 2 0 0 0 2-2V8a2 2 0 0 0-2-2"/><path fill="#CE93D8" d="M21.598 12.059h-6.084v-1.217h6.084m-2.434 6.085h-3.65V15.71h3.65m2.434-1.217h-6.084v-1.217h6.084m.608-4.26h-7.301a1.217 1.217 0 0 0-1.217 1.218v7.301a1.217 1.217 0 0 0 1.217 1.217h7.301a1.217 1.217 0 0 0 1.217-1.217v-7.301a1.217 1.217 0 0 0-1.217-1.217m-9.735 2.434h-1.217v8.518a1.217 1.217 0 0 0 1.217 1.217h8.519v-1.217H12.47z"/></svg>
